X: 30628
T: One-Horned Sheep, The
R: jig
M: 6/8
K: Gmajor
g2 G GFG|EGG DGG|g2 G GFG|EAG FED|
g2 G GFG|EGG DGG|EGG FGA|1 BGG G2 d:|2 BGG G2 D||
|:GBd dBG|GBd d2 D|GBd dcB|cBc A2 D|
GBd dBG|GBd def|gfe dcB|1 AGF G2 D:|2 ABc def||

